X: 36826
T: Shilley O'Guire
R: jig
M: 6/8
K: Gmajor
|:GBB Acc|GBB c2d|GBB dAd|BGG G3:|
|:GBd g3|ecc c3|A^ce a3|fdd d3|
GBd g3|ecc d2c|BGG cAA|BGG G3:|

